FINK
CUT[AUF BRUEDER LASST UNS LUSTIG LEBEN]
REG[Europa, Mitteleuropa, Deutschland]
KEY[F0497A 08 Eb 3/4]
MEL[5_  5__+1_  5__3_  4_2_5_  3_1_
    -5_  111111  1__
    5_  5__+1_  5__3_  4_2_5_  3_1_
    2_  333333  3__
    5_  +1_7_6_  5_4_3_  4__5_  6__
    7_  +1_7_6_  5__+1_  +2_+1_7_  +1__
    -5_  111111  1__
    2_  333333  3__
    5_  +1+1+1+1+1+1  +1__ //] >>
FCT[Studenten - Lied]
